!!!COM: Schubert, Franz
!!!CNT: Deutscher
!!!TXO: Deutsch
!!!LYR: Friedrich von Schlegel
!!!OTL: "Der Schmetterling"
!!!OPS: Op. 57
!!!ONM: No. 1
!!!ODT: 1819/
!!NB: Vocal melody only encoded.
!!NB: Original key: F Major
!!NB: Measure numbers are one off (+1) from where they should be.
**kern	**silbe
*clefG2	*
*k[b-e-a-]	*
*M2/4	*
*MM[etwas geschwind]	*
2r	.
=2	=2
2r	.
=3	=3
2r	.
=4	=4
2r	.
=5	=5
2r	.
=6	=6
2r	.
=7	=7
4r	.
8r	.
{8b-	{Wie
=8	=8
8g	soll
8b-	|
8g	ich
8b-	nicht
=9	=9
8g	tan-
8b-	|
8ee-	-zen?
8g	es
=10	=10
8a-	macht
8g	|
8f	kei-
8b-	-ne
=11	=11
4g	Mu2-
8e-}	-he,}
{8b-	{und
=12	=12
8g	rei-
8b-	|
8g	-zen-
8b-	-de
=13	=13
8g	Far-
8b-	|
8ee-	-ben
8r	.
=14	=14
8.a-	schim-
16g	-mern
8f	hier
8b-	im
=15	=15
4g	Gru2-
8e-}	-nen.}
8r	.
=16	=16
{8f	{Im-
8f#	-mer
8.g	scho2-
16fn	-ner
=17	=17
8e-	gla2n-
8g	|
4b-	-zen
=18	=18
8f	mei-
8f#	-ne
8.g	bun-
16fn	-ten
=19	=19
8e-	Flu2-
8g	|
4b-}	-gel,}
=20	=20
{4.g	{im-
8cc	-mer
=21	=21
8dd-	su2-
8cc	|
8a-	-sser
8f	|
=22	=22
8d	hau-
8b-	-chen
8.cc	al-
16b-	-le
=23	=23
8f	klei-
8b-	-nen
8g	Blu2-
8e-}	-ten.}
=24	=24
2r	.
=25	=25
4r	.
8r	.
{8b-	{Ich
=26	=26
8g	na-
8b-	|
8g	-sche
8b-	die
=27	=27
8g	Blu2-
8b-	|
8ee-	-ten,
8g	ihr
=28	=28
8a-	ko2nnt
8g	|
8f	sie
8b-	nicht
=29	=29
4g	hu2-
8e-}	-ten,}
{8b-	{ich
=30	=30
8b-	na-
8dd	|
8b-	-sche
8dd	die
=31	=31
8ee-	Blu2-
8b-	|
8g	-ten,
8b-	ihr
=32	=32
8b-	ko2nnt
8dd	|
8b-	sie
8dd	nicht
=33	=33
8ee-	hu2-
8b-	|
8g}	-ten.
8r	.
=34	=34
2r	.
=35	=35
2r	.
=36	=36
2r	.
=37	=37
2r	.
=38	=38
2r	.
=39	=39
4r	.
8r	.
{8b-	{Wie
=40	=40
8g	gross
8b-	|
8g	ist
8b-	die
=41	=41
8g	Freu-
8b-	|
8ee-	-de,
8g	sei's
=42	=42
8a-	spa2t
8g	|
8f	o-
8b-	-der
=43	=43
4g	fru2-
8e-}	-he,}
{8b-	{leicht-
=44	=44
8g	-sin-
8b-	|
8g	-nig
8b-	zu
=45	=45
8g	schwe-
8b-	|
8ee-	-ben
8r	.
=46	=46
8.a-	u2-
16g	-ber
8f	Tal
8b-	und
=47	=47
4g	Hu2-
8e-}	-gel!}
8r	.
=48	=48
{8f	{Wenn
8f#	der
8.g	A-
16fn	-bend
=49	=49
8e-	sa2u-
8g	|
4b-	-selt,
=50	=50
8f	seht
8f#	ihr
8g	Wol-
8fn	-ken
=51	=51
8e-	glu2-
8g	|
4b-}	-hen;}
=52	=52
{4.g	{wenn
8cc	die
=53	=53
8dd-	Lu2f-
8cc	|
8a-	-te
8f	|
=54	=54
8d	gol-
8b-	-den,
8.cc	scheint
16b-	die
=55	=55
8f	Wie-
8b-	-se
8g	gru2-
8e-}	-ner.}
=56	=56
2r	.
=57	=57
4r	.
8r	.
{8b-	{Ich
=58	=58
8g	na-
8b-	|
8g	-sche
8b-	die
=59	=59
8g	Blu2-
8b-	|
8ee-	-ten,
8g	ihr
=60	=60
8a-	ko2nnt
8g	|
8f	sie
8b-	nicht
=61	=61
4g	hu2-
8e-}	-ten,}
{8b-	{ich
=62	=62
8b-	na-
8dd	|
8b-	-sche
8dd	die
=63	=63
8ee-	Blu2-
8b-	|
8g	-ten,
8b-	ihr
=64	=64
8b-	ko2nnt
8dd	|
8b-	sie
8dd	nicht
=65	=65
8ee-	hu2-
8b-	|
8g}	-ten.}
8r	.
==	==
*-	*-